X: 1744
T: Natalie Guy's Schottische
B: australian traditional tunes wiki
M:4/4
L:1/8
R: Schottische
Q: 1/4=100
K:G
V:1 
B>c|:"G"d2G2"C"g2f>e|"D"d>e d>B"G"G2B2|"D7"A4D>G B>A|"G"G>F G>B "D7"d3B|
"G"d2G2"C"g2f>e|"D"d>e d>B"G"G2B2|"D7"A4 D>G B>A|"G"G2 (3AGF G4||
"D"F2F2A2A2|[d2f2][d2f2]"A7"a4|"D"a>b a>f "A7"e>d e>f|a>b a>f"D"d4|
"D"F2F2A2A2|[d2f2][d2f2]"A7"a4|"D"a>b a>f "A7"e>d e>f|"D"d>e d>B"G"G2B>=c:|
% abcbook-tune_id 6342d53acbf048e43887d8d4


% abcbook-boost 0
% abcbook-tablature 
% abcbook-transpose 
% abcbook-lastupdated 1665324381381
% abcbook-soundfonts 
% abcbook-repeats 1
% NFF Book 2013

